X:292
T:Steirer (90.)
C:traditionell
A:Salzkammergut
S:MIDI erhalten von Christian Amon. Nach einer kopie im besitz von Johann Stoeckl eines manuscriptes. Stoeckl(zitiert von Amon): "diese sammlung wurde 1935 im hause der familie Hohenlohe-Schillingfuerst gefunden. Sie wurde von einem der beiden brueder Steinegger 1866 verfasst. Die originale sind im Ausseer Kammerhofmuseum".
M:3/4
L:1/8
K:G
V:1
dc |\
B3 B d2 | cz cz a2 | fd d2 c'f | gb ge dc |\
B3 B d2 | cz cz a2 | fd d2 c'f | g4 |*
V:2
BA |\
G3 G B2 | Az Az f2 | dA A2 ad | dg dc BA |\
G3 G B2 | Az Az f2 | dA A2 ad | B4 |*
